X:1
T:My Soul Shouts Glory
T:John Robson Sweney
T:My Soul Shouts Glory
T:Public Domain
T:Public Domain
C:John Robson Sweney
Z:Public Domain
%%score ( 1 2 ) ( 3 4 )
L:1/8
M:4/4
K:C
V:1 treble 
V:2 treble 
V:3 bass 
V:4 bass 
V:1
 ([CE][DF]) | [EG]2 [EG]2 [Ec][Ec][GB][FA] | [EG]2 [^DA]2 [EG]2 C[C=D] | [CE]2 [CE]2 [CG]2 [CE]2 | %4
w: 1.~My *|soul shouts glo- ry to the|Son of God, For the|free grace has done;|
w: 2.~My *|soul shouts glo- ry to the|Son of God, Not a|nor care I see;|
w: 3.~My *|soul shouts glo- ry to the|Son of God, In His|ret place i dwell;|
w: 4.~My *|soul shouts glo- ry to the|Son of God, And I|it won’t be long|
 [B,D]6 (GF) | [CE]2 [CE]2 [EG][EG][EG][EG] | [FA]2 [Fc]2 [Fc]2 [Ac][_Ad] | %7
w: My faith *|up- ward with a stead- fast|eye That is clear as|
w: My hope *|cling- ing with a per- fect|trust To the cross He|
w: His con- *|pre- sence o- ver- shades me|there, And my joy there|
w: Till o’er *|ri- ver, where the saints have|gone, I shall join their|
 [Ge]2 [Gd][Gc] [FG]2 [Fd]2 | [Ec]6 ||"^Refrain" [Gc][Gc] | (FFFF) (FF)[GB][FA] | %11
w: the noon- day sun. *||||
w: has borne for me. Hal-|le-|lu- jah!|hal- * * * le- * lu- jah!|
w: is none can tell. *||||
w: e- ter- nal song. *||||
 (EEEE) (EE)[Gc][Gd] | [Ge][Ge][Ge][Ge] [Gd][Gd][^Fc][Fc] | [Gd]6 [Gc][Gd] | [Ge]4 [Ec]2 [EG][EG] | %15
w: ||||
w: lu- * * * jah * to the|I a- dore; I will praise Him, I|will praise Him,|Hal- le- lu- jah!|
w: ||||
w: ||||
 [FA]4 [Ac]2 [GB][FA] | [EG][EG][Ec][Ec] [Fd][Fd][Ec][DB] | [Ec]6 |] %18
w: |||
w: I will praise Him|ev- er- more. * * * * *||
w: |||
w: |||
V:2
 x2 | x8 | x6 C x | x8 | x6 D2 | x8 | x8 | x8 | x6 || x2 | B4 d2 x2 | G4 c2 x2 | x8 | x8 | x8 | %15
w: ||work||looks|||||||||||
w: ||cloud||is||||||Hal- le-|Sav- ior||||
w: ||sec-||stant|||||||||||
w: ||know||the|||||||||||
 x8 | x8 | x6 |] %18
w: |||
w: |||
w: |||
w: |||
V:3
 [C,G,]2 | [C,C]2 [C,C]2 [C,G,][C,G,][C,G,][C,G,] | [C,G,]2 [C,^F,]2 [C,G,]2 [C,E,][C,F,] | %3
w: ~|~ ~ ~ ~ ~ ~|~ ~ ~ ~ ~|
 [C,G,]2 [C,G,]2 [E,G,]2 [C,G,]2 | [G,,G,]6 [B,,G,]2 | [C,G,]2 [C,G,]2 [C,C][C,C][C,C][C,C] | %6
w: ~ ~ ~ ~|~ ~|~ ~ ~ ~ ~ ~|
 [G,C]2 [F,A,]2 [F,A,]2 [F,C][F,C] | [G,C]2 [G,F][G,E] [G,D]2 [G,B,]2 | [C,C]6 || [C,E][C,E] | %10
w: ~ ~ ~ ~ ~|~ ~ ~ ~ ~|~|Ha- le-|
 G,G,G,G, G,G,[G,D][G,B,] | C,C,C,C, C,C,[E,C][G,B,] | CCCC [B,D][B,D][A,D][A,D] | %13
w: lu- jah! I will praise Him! Ha- le-|I will praise Him! ~ ~ ~ ~|~ ~ ~ ~ ~ Ha- le- lu-|
 [G,B,]2 [G,B,][G,B,] [G,B,][G,B,][E,C][D,B,] | [C,C][C,C][C,C][C,C] [C,G,][C,G,][C,C][C,C] | %15
w: Him! I will praise Him, I will|praise Him and a- dore. * * *|
 [F,C][F,C][F,C][F,C] [F,C]2 [F,C][F,C] | [G,C][G,C][G,C][G,C] [G,B,][G,B,]G,G, | [C,G,]6 |] %18
w: |||
V:4
 x2 | x8 | x8 | x8 | x8 | x8 | x8 | x8 | x6 || x2 | D4 B,2 x2 | C4 G,2 x2 | CCCC x4 | x8 | x8 | %15
w: ||||||||||lu- jah!|~ ~|jah! I will praise|||
 x8 | x6 G,G, | x6 |] %18
w: |||

